src/assets/images/logo_sm.svg

<svg width="51" height="30" viewBox="0 0 51 30" fill="none" xmlns="http://www.w3.org/2000/svg">
<path fill-rule="evenodd" clip-rule="evenodd" d="M35.4276 0H8.58508C7.70204 0 6.96618 0.735868 6.96618 1.66796V9.56623L0 14.8154L6.96618 20.0646V27.7666C6.96618 28.6987 7.70204 29.4345 8.58508 29.4345H35.4276V21.9287H33.4082C33.212 21.9287 33.1139 21.8797 33.0158 21.8306L33.0157 21.8306C32.9176 21.7816 32.9176 21.6344 32.9176 21.4382V14.2758C32.9176 12.804 32.6723 11.6757 32.1327 10.9398C31.5931 10.204 30.661 9.86058 29.3855 9.86058C28.8949 9.86058 28.4043 9.90963 27.8157 10.0568C27.227 10.1549 26.7364 10.3511 26.393 10.5474C26.5892 11.087 26.7364 11.6266 26.8345 12.2153C26.9326 12.8039 26.9326 13.4415 26.9326 14.1281V14.1286V21.4382C26.9326 21.6344 26.8835 21.7816 26.7854 21.8306C26.6873 21.8797 26.5402 21.9287 26.3439 21.9287H24.2344C24.0382 21.9287 23.9401 21.8797 23.842 21.8306L23.842 21.8306C23.7439 21.7816 23.7438 21.6344 23.7438 21.4382V14.0795C23.7438 13.4418 23.6948 12.8531 23.5967 12.3625C23.4986 11.8719 23.3023 11.3814 23.0571 11.038C22.8118 10.6946 22.4193 10.4002 21.9287 10.204C21.4382 10.0077 20.8495 9.90964 20.0645 9.90964H19.623H19.623C19.4268 9.90964 19.2305 9.90964 19.0343 9.95869C18.9362 9.95869 18.8381 9.97095 18.74 9.98322C18.6419 9.99548 18.5438 10.0077 18.4456 10.0077C18.3405 10.0077 18.2494 10.0218 18.1649 10.0349C18.0917 10.0462 18.0234 10.0568 17.9551 10.0568V21.4872C17.9551 21.6835 17.906 21.8306 17.8569 21.8797C17.7588 21.9287 17.6607 21.9778 17.4645 21.9778H15.355C15.1588 21.9778 15.0607 21.9287 14.9626 21.8797C14.8644 21.8306 14.8644 21.6835 14.8644 21.4872V9.76246V9.7622C14.8644 9.41891 14.8644 9.12465 14.9135 8.87942C14.9625 8.63414 15.0607 8.38885 15.1588 8.19262C15.3059 7.99639 15.4531 7.84922 15.6984 7.70205C15.9437 7.55487 16.238 7.45675 16.6305 7.35864C16.747 7.35864 16.8941 7.32792 17.072 7.29079C17.119 7.281 17.168 7.27076 17.2192 7.26052C17.3664 7.23599 17.5135 7.22373 17.6607 7.21147C17.8079 7.1992 17.9551 7.18694 18.1022 7.16241C18.2494 7.16241 18.4088 7.15014 18.5683 7.13788C18.7277 7.12561 18.8872 7.11335 19.0343 7.11335C19.1964 7.11335 19.3584 7.09848 19.5041 7.08512C19.623 7.07421 19.731 7.0643 19.8192 7.0643C20.9476 7.0643 21.8797 7.16241 22.6646 7.4077C23.4495 7.60393 24.1363 7.99639 24.725 8.43791C25.3627 7.99639 26.0986 7.70205 26.9817 7.45676C27.8647 7.21147 28.7477 7.0643 29.7289 7.0643C30.8572 7.0643 31.8384 7.21147 32.6233 7.55487C33.4082 7.89827 34.046 8.33979 34.5856 8.92848C34.9235 9.33396 35.2148 9.80925 35.4276 10.3383V0Z" fill="#00BAFF"/>
<rect x="8.42758" width="42" height="29.45" rx="2" fill="#00BAFF"/>
<path d="M39.4276 11.4793C39.4276 8.34711 36.8885 5.80811 33.7565 5.80811C31.7114 5.80811 29.9253 6.89429 28.9275 8.51756C27.9299 6.89429 26.143 5.80811 24.0979 5.80811C20.9659 5.80811 18.4276 8.34711 18.4276 11.4793C18.4276 13.1845 19.1832 14.7101 20.3741 15.7491L28.41 23.7856C28.5473 23.9229 28.7334 24 28.9275 24C29.1217 24 29.3078 23.9229 29.445 23.7856L37.4809 15.7491C38.6719 14.7101 39.4276 13.1845 39.4276 11.4793Z" fill="white"/>
</svg>

<svg width="51" height="30" fill="none" xmlns="http://www.w3.org/2000/svg"><path fill-rule="evenodd" clip-rule="evenodd" d="M35.428 0H8.585c-.883 0-1.619.736-1.619 1.668v7.898L0 14.816l6.966 5.249v7.702c0 .932.736 1.668 1.62 1.668h26.842v-7.506h-2.02a.76.76 0 0 1-.392-.098c-.098-.05-.098-.197-.098-.393v-7.162c0-1.472-.246-2.6-.785-3.336-.54-.736-1.472-1.08-2.748-1.08-.49 0-.98.05-1.57.197a4.358 4.358 0 0 0-1.422.49c.196.54.343 1.08.441 1.668.099.589.099 1.226.099 1.913v7.31c0 .196-.05.344-.148.393a.979.979 0 0 1-.441.098h-2.11a.76.76 0 0 1-.392-.098c-.098-.05-.098-.197-.098-.393V14.08c0-.638-.05-1.227-.147-1.717-.098-.491-.295-.982-.54-1.325-.245-.343-.638-.638-1.128-.834-.49-.196-1.08-.294-1.864-.294h-.442c-.196 0-.393 0-.589.049a2.38 2.38 0 0 0-.294.024 2.382 2.382 0 0 1-.294.025c-.106 0-.197.014-.281.027-.073.011-.142.022-.21.022v11.43c0 .197-.049.344-.098.393-.098.049-.196.098-.392.098h-2.11c-.196 0-.294-.05-.392-.098-.099-.05-.099-.197-.099-.393V9.762c0-.343 0-.637.05-.883.049-.245.147-.49.245-.686.147-.197.294-.344.54-.49.245-.148.539-.246.932-.344.116 0 .263-.031.441-.068l.147-.03c.147-.025.294-.037.442-.05.147-.012.294-.024.441-.049.147 0 .307-.012.466-.024.16-.012.32-.025.466-.025.162 0 .324-.015.47-.028.119-.01.227-.02.315-.02 1.129 0 2.06.097 2.846.343.785.196 1.471.588 2.06 1.03.638-.442 1.374-.736 2.257-.981a10.045 10.045 0 0 1 2.747-.393c1.128 0 2.11.147 2.894.49.785.344 1.423.786 1.963 1.374.337.406.629.881.842 1.41V0z" fill="#00BAFF"/><rect x="8.428" width="42" height="29.45" rx="2" fill="#00BAFF"/><path d="M39.428 11.48a5.671 5.671 0 0 0-5.671-5.672 5.66 5.66 0 0 0-4.83 2.71 5.662 5.662 0 0 0-4.83-2.71 5.67 5.67 0 0 0-5.67 5.671 5.65 5.65 0 0 0 1.947 4.27l8.036 8.037a.732.732 0 0 0 1.035 0l8.036-8.037a5.65 5.65 0 0 0 1.947-4.27z" fill="#fff"/></svg>
